X:1
T: The Proxy Spouse
C:
R:Strathspey
Q: 128
K:Eb
M:4/4
L:1/16
B4 B3=A B3c eG3|F6 E2 F3E GE3|B,3C E3G B2cd e3B|((3c2e2c2) ((3B2A2G2) F3E FG3|
B4 B3=A B3c eG3|F6 E2 F3E GE3|B,4 CE3 B,3C EB,3|CE3 E3F E8|
g4 fg3 e3B GE3|Cc3 B3G F3B df3|g4 fg3 e3c BB,3|CE3 E3F E4 ((3e2f2g2) |
a4 ga3 f3B df3|g4 fg3 e3d cB3|c4 ((3c2e2c2) B3G EB,3|CE3 E3F E4|
